static/img/kroki/606ea35bba1d5f53ef11ec6c80b095da.svg

<?xml version="1.0" encoding="us-ascii" standalone="no"?><svg xmlns="http://www.w3.org/2000/svg" xmlns:xlink="http://www.w3.org/1999/xlink" contentStyleType="text/css" height="352px" preserveAspectRatio="none" style="width:789px;height:352px;" version="1.1" viewBox="0 0 789 352" width="789px" zoomAndPan="magnify"><defs/><g><!--class aws_ec2_security_group--><g id="elem_aws_ec2_security_group"><rect codeLine="22" fill="#3D176E" height="39.7891" id="aws_ec2_security_group" rx="2.5" ry="2.5" style="stroke:#000D19;stroke-width:0.5;" width="245" x="7" y="7"/><ellipse cx="22" cy="26.8945" fill="#ADD1B2" rx="11" ry="11" style="stroke:#181818;stroke-width:1.0;"/><path d="M24.9688,32.5352 Q24.3906,32.832 23.75,32.9727 Q23.1094,33.1289 22.4063,33.1289 Q19.9063,33.1289 18.5781,31.4883 Q17.2656,29.832 17.2656,26.707 Q17.2656,23.582 18.5781,21.9258 Q19.9063,20.2695 22.4063,20.2695 Q23.1094,20.2695 23.75,20.4258 Q24.4063,20.582 24.9688,20.8789 L24.9688,23.5977 Q24.3438,23.0195 23.75,22.7539 Q23.1563,22.4727 22.5313,22.4727 Q21.1875,22.4727 20.5,23.5508 Q19.8125,24.6133 19.8125,26.707 Q19.8125,28.8008 20.5,29.8789 Q21.1875,30.9414 22.5313,30.9414 Q23.1563,30.9414 23.75,30.6758 Q24.3438,30.3945 24.9688,29.8164 L24.9688,32.5352 Z " fill="#000000"/><text fill="#D9B8FF" font-family="Helvetica" font-size="17" lengthAdjust="spacing" textLength="203" x="41" y="32.7798">aws_ec2_security_group</text></g><!--class aws_ec2_subnet--><g id="elem_aws_ec2_subnet"><rect codeLine="24" fill="#3D176E" height="39.7891" id="aws_ec2_subnet" rx="2.5" ry="2.5" style="stroke:#000D19;stroke-width:0.5;" width="179" x="287" y="7"/><ellipse cx="302" cy="26.8945" fill="#ADD1B2" rx="11" ry="11" style="stroke:#181818;stroke-width:1.0;"/><path d="M304.9688,32.5352 Q304.3906,32.832 303.75,32.9727 Q303.1094,33.1289 302.4063,33.1289 Q299.9063,33.1289 298.5781,31.4883 Q297.2656,29.832 297.2656,26.707 Q297.2656,23.582 298.5781,21.9258 Q299.9063,20.2695 302.4063,20.2695 Q303.1094,20.2695 303.75,20.4258 Q304.4063,20.582 304.9688,20.8789 L304.9688,23.5977 Q304.3438,23.0195 303.75,22.7539 Q303.1563,22.4727 302.5313,22.4727 Q301.1875,22.4727 300.5,23.5508 Q299.8125,24.6133 299.8125,26.707 Q299.8125,28.8008 300.5,29.8789 Q301.1875,30.9414 302.5313,30.9414 Q303.1563,30.9414 303.75,30.6758 Q304.3438,30.3945 304.9688,29.8164 L304.9688,32.5352 Z " fill="#000000"/><text fill="#D9B8FF" font-family="Helvetica" font-size="17" lengthAdjust="spacing" textLength="137" x="321" y="32.7798">aws_ec2_subnet</text></g><!--class aws_iam_role--><g id="elem_aws_iam_role"><rect codeLine="26" fill="#3D176E" height="39.7891" id="aws_iam_role" rx="2.5" ry="2.5" style="stroke:#000D19;stroke-width:0.5;" width="157" x="501" y="7"/><ellipse cx="516" cy="26.8945" fill="#ADD1B2" rx="11" ry="11" style="stroke:#181818;stroke-width:1.0;"/><path d="M518.9688,32.5352 Q518.3906,32.832 517.75,32.9727 Q517.1094,33.1289 516.4063,33.1289 Q513.9063,33.1289 512.5781,31.4883 Q511.2656,29.832 511.2656,26.707 Q511.2656,23.582 512.5781,21.9258 Q513.9063,20.2695 516.4063,20.2695 Q517.1094,20.2695 517.75,20.4258 Q518.4063,20.582 518.9688,20.8789 L518.9688,23.5977 Q518.3438,23.0195 517.75,22.7539 Q517.1563,22.4727 516.5313,22.4727 Q515.1875,22.4727 514.5,23.5508 Q513.8125,24.6133 513.8125,26.707 Q513.8125,28.8008 514.5,29.8789 Q515.1875,30.9414 516.5313,30.9414 Q517.1563,30.9414 517.75,30.6758 Q518.3438,30.3945 518.9688,29.8164 L518.9688,32.5352 Z " fill="#000000"/><text fill="#D9B8FF" font-family="Helvetica" font-size="17" lengthAdjust="spacing" textLength="115" x="535" y="32.7798">aws_iam_role</text></g><!--class aws_kms_key--><g id="elem_aws_kms_key"><rect codeLine="28" fill="#3D176E" height="39.7891" id="aws_kms_key" rx="2.5" ry="2.5" style="stroke:#000D19;stroke-width:0.5;" width="158" x="256.5" y="306.37"/><ellipse cx="271.5" cy="326.2645" fill="#ADD1B2" rx="11" ry="11" style="stroke:#181818;stroke-width:1.0;"/><path d="M274.4688,331.9052 Q273.8906,332.202 273.25,332.3427 Q272.6094,332.4989 271.9063,332.4989 Q269.4063,332.4989 268.0781,330.8583 Q266.7656,329.202 266.7656,326.077 Q266.7656,322.952 268.0781,321.2958 Q269.4063,319.6395 271.9063,319.6395 Q272.6094,319.6395 273.25,319.7958 Q273.9063,319.952 274.4688,320.2489 L274.4688,322.9677 Q273.8438,322.3895 273.25,322.1239 Q272.6563,321.8427 272.0313,321.8427 Q270.6875,321.8427 270,322.9208 Q269.3125,323.9833 269.3125,326.077 Q269.3125,328.1708 270,329.2489 Q270.6875,330.3114 272.0313,330.3114 Q272.6563,330.3114 273.25,330.0458 Q273.8438,329.7645 274.4688,329.1864 L274.4688,331.9052 Z " fill="#000000"/><text fill="#D9B8FF" font-family="Helvetica" font-size="17" lengthAdjust="spacing" textLength="116" x="290.5" y="332.1498">aws_kms_key</text></g><!--class aws_s3_bucket--><g id="elem_aws_s3_bucket"><rect codeLine="30" fill="#3D176E" height="39.7891" id="aws_s3_bucket" rx="2.5" ry="2.5" style="stroke:#000D19;stroke-width:0.5;" width="168" x="466.5" y="306.37"/><ellipse cx="481.5" cy="326.2645" fill="#ADD1B2" rx="11" ry="11" style="stroke:#181818;stroke-width:1.0;"/><path d="M484.4688,331.9052 Q483.8906,332.202 483.25,332.3427 Q482.6094,332.4989 481.9063,332.4989 Q479.4063,332.4989 478.0781,330.8583 Q476.7656,329.202 476.7656,326.077 Q476.7656,322.952 478.0781,321.2958 Q479.4063,319.6395 481.9063,319.6395 Q482.6094,319.6395 483.25,319.7958 Q483.9063,319.952 484.4688,320.2489 L484.4688,322.9677 Q483.8438,322.3895 483.25,322.1239 Q482.6563,321.8427 482.0313,321.8427 Q480.6875,321.8427 480,322.9208 Q479.3125,323.9833 479.3125,326.077 Q479.3125,328.1708 480,329.2489 Q480.6875,330.3114 482.0313,330.3114 Q482.6563,330.3114 483.25,330.0458 Q483.8438,329.7645 484.4688,329.1864 L484.4688,331.9052 Z " fill="#000000"/><text fill="#D9B8FF" font-family="Helvetica" font-size="17" lengthAdjust="spacing" textLength="126" x="500.5" y="332.1498">aws_s3_bucket</text></g><!--class aws_sagemaker_hyper_parameter_tuning_job--><g id="elem_aws_sagemaker_hyper_parameter_tuning_job"><rect codeLine="32" fill="#3D176E" height="39.7891" id="aws_sagemaker_hyper_parameter_tuning_job" rx="2.5" ry="2.5" style="stroke:#000D19;stroke-width:0.5;" width="428" x="354.5" y="106.79"/><ellipse cx="369.5" cy="126.6845" fill="#ADD1B2" rx="11" ry="11" style="stroke:#181818;stroke-width:1.0;"/><path d="M372.4688,132.3252 Q371.8906,132.622 371.25,132.7627 Q370.6094,132.9189 369.9063,132.9189 Q367.4063,132.9189 366.0781,131.2783 Q364.7656,129.622 364.7656,126.497 Q364.7656,123.372 366.0781,121.7158 Q367.4063,120.0595 369.9063,120.0595 Q370.6094,120.0595 371.25,120.2158 Q371.9063,120.372 372.4688,120.6689 L372.4688,123.3877 Q371.8438,122.8095 371.25,122.5439 Q370.6563,122.2627 370.0313,122.2627 Q368.6875,122.2627 368,123.3408 Q367.3125,124.4033 367.3125,126.497 Q367.3125,128.5908 368,129.6689 Q368.6875,130.7314 370.0313,130.7314 Q370.6563,130.7314 371.25,130.4658 Q371.8438,130.1845 372.4688,129.6064 L372.4688,132.3252 Z " fill="#000000"/><text fill="#D9B8FF" font-family="Helvetica" font-size="17" lengthAdjust="spacing" textLength="386" x="388.5" y="132.5698">aws_sagemaker_hyper_parameter_tuning_job</text></g><!--class aws_sagemaker_training_job--><g id="elem_aws_sagemaker_training_job"><rect codeLine="34" fill="#3D176E" height="39.7891" id="aws_sagemaker_training_job" rx="2.5" ry="2.5" style="stroke:#000D19;stroke-width:0.5;" width="285" x="159" y="206.58"/><ellipse cx="174" cy="226.4745" fill="#ADD1B2" rx="11" ry="11" style="stroke:#181818;stroke-width:1.0;"/><path d="M176.9688,232.1152 Q176.3906,232.412 175.75,232.5527 Q175.1094,232.7089 174.4063,232.7089 Q171.9063,232.7089 170.5781,231.0683 Q169.2656,229.412 169.2656,226.287 Q169.2656,223.162 170.5781,221.5058 Q171.9063,219.8495 174.4063,219.8495 Q175.1094,219.8495 175.75,220.0058 Q176.4063,220.162 176.9688,220.4589 L176.9688,223.1777 Q176.3438,222.5995 175.75,222.3339 Q175.1563,222.0527 174.5313,222.0527 Q173.1875,222.0527 172.5,223.1308 Q171.8125,224.1933 171.8125,226.287 Q171.8125,228.3808 172.5,229.4589 Q173.1875,230.5214 174.5313,230.5214 Q175.1563,230.5214 175.75,230.2558 Q176.3438,229.9745 176.9688,229.3964 L176.9688,232.1152 Z " fill="#000000"/><text fill="#D9B8FF" font-family="Helvetica" font-size="17" lengthAdjust="spacing" textLength="243" x="193" y="232.3598">aws_sagemaker_training_job</text></g><!--link aws_ec2_security_group to aws_sagemaker_hyper_parameter_tuning_job--><g id="link_aws_ec2_security_group_aws_sagemaker_hyper_parameter_tuning_job"><path codeLine="36" d="M216.49,47.28 C291.56,64 399.66,88.08 476.22,105.13 " fill="none" id="aws_ec2_security_group-to-aws_sagemaker_hyper_parameter_tuning_job" style="stroke:#1A83AF;stroke-width:2.0;"/><polygon fill="#1A83AF" points="480.68,106.35,472.762,100.4929,475.7991,105.2653,471.0266,108.3024,480.68,106.35" style="stroke:#1A83AF;stroke-width:2.0;"/></g><!--link aws_ec2_security_group to aws_sagemaker_training_job--><g id="link_aws_ec2_security_group_aws_sagemaker_training_job"><path codeLine="37" d="M146.31,47.2 C178.03,83.65 246.64,162.46 281.01,201.94 " fill="none" id="aws_ec2_security_group-to-aws_sagemaker_training_job" style="stroke:#1A83AF;stroke-width:2.0;"/><polygon fill="#1A83AF" points="284.63,205.09,281.734,195.6765,281.3456,201.32,275.7021,200.9316,284.63,205.09" style="stroke:#1A83AF;stroke-width:2.0;"/></g><!--link aws_ec2_subnet to aws_sagemaker_hyper_parameter_tuning_job--><g id="link_aws_ec2_subnet_aws_sagemaker_hyper_parameter_tuning_job"><path codeLine="38" d="M414.43,47.22 C446.38,63.49 492.08,86.77 525.41,103.74 " fill="none" id="aws_ec2_subnet-to-aws_sagemaker_hyper_parameter_tuning_job" style="stroke:#1A83AF;stroke-width:2.0;"/><polygon fill="#1A83AF" points="529.65,106.41,523.428,98.7754,525.1894,104.1511,519.8137,105.9125,529.65,106.41" style="stroke:#1A83AF;stroke-width:2.0;"/></g><!--link aws_ec2_subnet to aws_sagemaker_training_job--><g id="link_aws_ec2_subnet_aws_sagemaker_training_job"><path codeLine="39" d="M336.92,47.22 C314.43,60.55 288.28,80.6 275.5,106.79 C260.56,137.41 274.82,176.64 287.38,201.42 " fill="none" id="aws_ec2_subnet-to-aws_sagemaker_training_job" style="stroke:#1A83AF;stroke-width:2.0;"/><polygon fill="#1A83AF" points="290.03,205.48,289.4067,195.6509,287.7142,201.0486,282.3165,199.3561,290.03,205.48" style="stroke:#1A83AF;stroke-width:2.0;"/></g><!--link aws_iam_role to aws_sagemaker_hyper_parameter_tuning_job--><g id="link_aws_iam_role_aws_sagemaker_hyper_parameter_tuning_job"><path codeLine="40" d="M577.33,47.22 C575.61,62.49 573.2,83.92 571.33,100.53 " fill="none" id="aws_iam_role-to-aws_sagemaker_hyper_parameter_tuning_job" style="stroke:#1A83AF;stroke-width:2.0;"/><polygon fill="#1A83AF" points="570.67,105.41,575.6475,96.9115,571.2269,100.4411,567.6972,96.0205,570.67,105.41" style="stroke:#1A83AF;stroke-width:2.0;"/></g><!--link aws_iam_role to aws_sagemaker_training_job--><g id="link_aws_iam_role_aws_sagemaker_training_job"><path codeLine="41" d="M500.7,45.25 C439.26,60.25 360.62,83.2 337.5,106.79 C312.71,132.1 304.91,173.91 302.51,200.55 " fill="none" id="aws_iam_role-to-aws_sagemaker_training_job" style="stroke:#1A83AF;stroke-width:2.0;"/><polygon fill="#1A83AF" points="302.05,205.32,306.7569,196.6687,302.4499,200.336,298.7826,196.0289,302.05,205.32" style="stroke:#1A83AF;stroke-width:2.0;"/></g><!--link aws_sagemaker_hyper_parameter_tuning_job to aws_kms_key--><g id="link_aws_sagemaker_hyper_parameter_tuning_job_aws_kms_key"><path codeLine="42" d="M553.98,146.87 C534.62,171.66 498.47,215.34 461.5,246.37 C435.37,268.3 402.63,288.62 377.07,303.14 " fill="none" id="aws_sagemaker_hyper_parameter_tuning_job-to-aws_kms_key" style="stroke:#1A83AF;stroke-width:2.0;"/><polygon fill="#1A83AF" points="373.06,305.97,382.8642,305.0333,377.4152,303.5139,378.9345,298.0649,373.06,305.97" style="stroke:#1A83AF;stroke-width:2.0;"/></g><!--link aws_sagemaker_hyper_parameter_tuning_job to aws_s3_bucket--><g id="link_aws_sagemaker_hyper_parameter_tuning_job_aws_s3_bucket"><path codeLine="43" d="M566.74,146.99 C563.46,182.99 556.41,260.34 552.78,300.27 " fill="none" id="aws_sagemaker_hyper_parameter_tuning_job-to-aws_s3_bucket" style="stroke:#1A83AF;stroke-width:2.0;"/><polygon fill="#1A83AF" points="552.27,304.88,557.0773,296.2841,552.7278,299.901,549.1109,295.5515,552.27,304.88" style="stroke:#1A83AF;stroke-width:2.0;"/></g><!--link aws_sagemaker_hyper_parameter_tuning_job to aws_sagemaker_training_job--><g id="link_aws_sagemaker_hyper_parameter_tuning_job_aws_sagemaker_training_job"><path codeLine="44" d="M515.75,147.01 C470.77,163.48 406.2,187.13 359.72,204.15 " fill="none" id="aws_sagemaker_hyper_parameter_tuning_job-to-aws_sagemaker_training_job" style="stroke:#1A83AF;stroke-width:2.0;"/><polygon fill="#1A83AF" points="355.14,206.2,364.9675,206.8476,359.8327,204.4741,362.2061,199.3393,355.14,206.2" style="stroke:#1A83AF;stroke-width:2.0;"/></g><!--link aws_sagemaker_training_job to aws_kms_key--><g id="link_aws_sagemaker_training_job_aws_kms_key"><path codeLine="45" d="M308.22,246.8 C313.57,262.2 321.11,283.87 326.9,300.54 " fill="none" id="aws_sagemaker_training_job-to-aws_kms_key" style="stroke:#1A83AF;stroke-width:2.0;"/><polygon fill="#1A83AF" points="328.8,304.99,329.6248,295.1757,327.1591,300.2669,322.0679,297.8012,328.8,304.99" style="stroke:#1A83AF;stroke-width:2.0;"/></g><!--link aws_sagemaker_training_job to aws_s3_bucket--><g id="link_aws_sagemaker_training_job_aws_s3_bucket"><path codeLine="46" d="M350.69,246.8 C392.56,263.24 452.61,286.82 495.94,303.84 " fill="none" id="aws_sagemaker_training_job-to-aws_s3_bucket" style="stroke:#1A83AF;stroke-width:2.0;"/><polygon fill="#1A83AF" points="500.41,305.99,493.4945,298.9774,495.7559,304.1626,490.5707,306.424,500.41,305.99" style="stroke:#1A83AF;stroke-width:2.0;"/></g><!--SRC=[fP91Jy9048Nl_8fDE9DG6mKk9fM4w8KOyMRCPjkTqhNjRZExbLJZVxS596NNGWE7NcQ-ldblTXB1WK1Uc8haa8U0Ug1J8Gk6B2S1ejhCLQQG3EEOnVx4RYwKD6U19Sk1F4Bs2KP4p2PU4n6b4hGcDwtM0ulIDQfIyfsyGIPrtG9fMjGyOre7ng08ImCjCtmMJkFO9ctHeS-zoHquc48Ek4V6up7tPZPoTjJ9t0TY9Rw0UEsbBPK1nwOpOakTTDaGBPDEqBz-fyTdnhcGQtBRghtiFA44FAgl4iRLfg5Zbkds66q0GPcgWBcJ2cPJ7a_-XP-wuAZP764RJI6weHgY4eMfQ8CMv7lmOmDbAC5O3S5oYYe3gvpczGULLTK-3SieTKGqMqFEKa2Qr7wHRXD07O2QKjQRe1ygxFobFcPn17K46hqDlM3g1ultqNtlgHU8jVqChDrTwU6iY3Fxy3oNJ-uZuSpjzQAEuFvghb0uNDWr6drY7LrTpo2d_pbO_mK0]--></g></svg>

<svg xmlns="http://www.w3.org/2000/svg" width="789" height="352" preserveAspectRatio="none" style="width:789px;height:352px"><rect width="245" height="39.789" x="7" y="7" fill="#3D176E" rx="2.5" ry="2.5" style="stroke:#000d19;stroke-width:.5"/><circle cx="22" cy="26.895" r="11" fill="#ADD1B2" style="stroke:#181818;stroke-width:1"/><path d="M24.969 32.535q-.578.297-1.219.438-.64.156-1.344.156-2.5 0-3.828-1.64-1.312-1.657-1.312-4.782t1.312-4.781q1.328-1.656 3.828-1.656.703 0 1.344.156.656.156 1.219.453v2.719q-.625-.578-1.219-.844-.594-.281-1.219-.281-1.343 0-2.031 1.078-.688 1.062-.688 3.156 0 2.094.688 3.172.688 1.062 2.031 1.062.625 0 1.219-.265.594-.281 1.219-.86v2.72Z"/><text x="41" y="32.78" fill="#D9B8FF" font-family="Helvetica" font-size="17" textLength="203">aws_ec2_security_group</text><rect width="179" height="39.789" x="287" y="7" fill="#3D176E" rx="2.5" ry="2.5" style="stroke:#000d19;stroke-width:.5"/><circle cx="302" cy="26.895" r="11" fill="#ADD1B2" style="stroke:#181818;stroke-width:1"/><path d="M304.969 32.535q-.578.297-1.219.438-.64.156-1.344.156-2.5 0-3.828-1.64-1.312-1.657-1.312-4.782t1.312-4.781q1.328-1.656 3.828-1.656.703 0 1.344.156.656.156 1.219.453v2.719q-.625-.578-1.219-.844-.594-.281-1.219-.281-1.344 0-2.031 1.078-.688 1.062-.688 3.156 0 2.094.688 3.172.688 1.062 2.031 1.062.625 0 1.219-.265.594-.281 1.219-.86v2.72Z"/><text x="321" y="32.78" fill="#D9B8FF" font-family="Helvetica" font-size="17" textLength="137">aws_ec2_subnet</text><rect width="157" height="39.789" x="501" y="7" fill="#3D176E" rx="2.5" ry="2.5" style="stroke:#000d19;stroke-width:.5"/><circle cx="516" cy="26.895" r="11" fill="#ADD1B2" style="stroke:#181818;stroke-width:1"/><path d="M518.969 32.535q-.578.297-1.219.438-.64.156-1.344.156-2.5 0-3.828-1.64-1.312-1.657-1.312-4.782t1.312-4.781q1.328-1.656 3.828-1.656.703 0 1.344.156.656.156 1.219.453v2.719q-.625-.578-1.219-.844-.594-.281-1.219-.281-1.343 0-2.031 1.078-.688 1.062-.688 3.156 0 2.094.688 3.172.688 1.062 2.031 1.062.625 0 1.219-.265.594-.281 1.219-.86v2.72Z"/><text x="535" y="32.78" fill="#D9B8FF" font-family="Helvetica" font-size="17" textLength="115">aws_iam_role</text><rect width="158" height="39.789" x="256.5" y="306.37" fill="#3D176E" rx="2.5" ry="2.5" style="stroke:#000d19;stroke-width:.5"/><circle cx="271.5" cy="326.264" r="11" fill="#ADD1B2" style="stroke:#181818;stroke-width:1"/><path d="M274.469 331.905q-.578.297-1.219.438-.64.156-1.344.156-2.5 0-3.828-1.64-1.312-1.657-1.312-4.782t1.312-4.781q1.328-1.656 3.828-1.656.703 0 1.344.156.656.156 1.219.453v2.719q-.625-.579-1.219-.844-.594-.281-1.219-.281-1.344 0-2.031 1.078-.688 1.062-.688 3.156 0 2.094.688 3.172.688 1.062 2.031 1.062.625 0 1.219-.265.594-.281 1.219-.86v2.72Z"/><text x="290.5" y="332.15" fill="#D9B8FF" font-family="Helvetica" font-size="17" textLength="116">aws_kms_key</text><rect width="168" height="39.789" x="466.5" y="306.37" fill="#3D176E" rx="2.5" ry="2.5" style="stroke:#000d19;stroke-width:.5"/><circle cx="481.5" cy="326.264" r="11" fill="#ADD1B2" style="stroke:#181818;stroke-width:1"/><path d="M484.469 331.905q-.578.297-1.219.438-.64.156-1.344.156-2.5 0-3.828-1.64-1.312-1.657-1.312-4.782t1.312-4.781q1.328-1.656 3.828-1.656.703 0 1.344.156.656.156 1.219.453v2.719q-.625-.579-1.219-.844-.594-.281-1.219-.281-1.344 0-2.031 1.078-.688 1.062-.688 3.156 0 2.094.688 3.172.688 1.062 2.031 1.062.625 0 1.219-.265.594-.281 1.219-.86v2.72Z"/><text x="500.5" y="332.15" fill="#D9B8FF" font-family="Helvetica" font-size="17" textLength="126">aws_s3_bucket</text><rect width="428" height="39.789" x="354.5" y="106.79" fill="#3D176E" rx="2.5" ry="2.5" style="stroke:#000d19;stroke-width:.5"/><circle cx="369.5" cy="126.684" r="11" fill="#ADD1B2" style="stroke:#181818;stroke-width:1"/><path d="M372.469 132.325q-.578.297-1.219.438-.64.156-1.344.156-2.5 0-3.828-1.64-1.312-1.657-1.312-4.782t1.312-4.781q1.328-1.656 3.828-1.656.703 0 1.344.156.656.156 1.219.453v2.719q-.625-.579-1.219-.844-.594-.281-1.219-.281-1.344 0-2.031 1.078-.688 1.062-.688 3.156 0 2.094.688 3.172.688 1.062 2.031 1.062.625 0 1.219-.265.594-.281 1.219-.86v2.72Z"/><text x="388.5" y="132.57" fill="#D9B8FF" font-family="Helvetica" font-size="17" textLength="386">aws_sagemaker_hyper_parameter_tuning_job</text><rect width="285" height="39.789" x="159" y="206.58" fill="#3D176E" rx="2.5" ry="2.5" style="stroke:#000d19;stroke-width:.5"/><circle cx="174" cy="226.475" r="11" fill="#ADD1B2" style="stroke:#181818;stroke-width:1"/><path d="M176.969 232.115q-.578.297-1.219.438-.64.156-1.344.156-2.5 0-3.828-1.64-1.312-1.657-1.312-4.782t1.312-4.781q1.328-1.656 3.828-1.656.703 0 1.344.156.656.156 1.219.453v2.719q-.625-.578-1.219-.844-.594-.281-1.219-.281-1.344 0-2.031 1.078-.688 1.062-.688 3.156 0 2.094.688 3.172.688 1.062 2.031 1.062.625 0 1.219-.265.594-.281 1.219-.86v2.72Z"/><text x="193" y="232.36" fill="#D9B8FF" font-family="Helvetica" font-size="17" textLength="243">aws_sagemaker_training_job</text><path fill="none" d="M216.49 47.28c75.07 16.72 183.17 40.8 259.73 57.85" style="stroke:#1a83af;stroke-width:2"/><path fill="#1A83AF" d="m480.68 106.35-7.918-5.857 3.037 4.772-4.772 3.037 9.653-1.952z" style="stroke:#1a83af;stroke-width:2"/><path fill="none" d="M146.31 47.2c31.72 36.45 100.33 115.26 134.7 154.74" style="stroke:#1a83af;stroke-width:2"/><path fill="#1A83AF" d="m284.63 205.09-2.896-9.413-.388 5.643-5.644-.388 8.928 4.158z" style="stroke:#1a83af;stroke-width:2"/><path fill="none" d="M414.43 47.22c31.95 16.27 77.65 39.55 110.98 56.52" style="stroke:#1a83af;stroke-width:2"/><path fill="#1A83AF" d="m529.65 106.41-6.222-7.635 1.761 5.376-5.375 1.761 9.836.498z" style="stroke:#1a83af;stroke-width:2"/><path fill="none" d="M336.92 47.22c-22.49 13.33-48.64 33.38-61.42 59.57-14.94 30.62-.68 69.85 11.88 94.63" style="stroke:#1a83af;stroke-width:2"/><path fill="#1A83AF" d="m290.03 205.48-.623-9.83-1.693 5.399-5.397-1.693 7.713 6.124z" style="stroke:#1a83af;stroke-width:2"/><path fill="none" d="M577.33 47.22c-1.72 15.27-4.13 36.7-6 53.31" style="stroke:#1a83af;stroke-width:2"/><path fill="#1A83AF" d="m570.67 105.41 4.978-8.498-4.421 3.53-3.53-4.421 2.973 9.389z" style="stroke:#1a83af;stroke-width:2"/><path fill="none" d="M500.7 45.25c-61.44 15-140.08 37.95-163.2 61.54-24.79 25.31-32.59 67.12-34.99 93.76" style="stroke:#1a83af;stroke-width:2"/><path fill="#1A83AF" d="m302.05 205.32 4.707-8.651-4.307 3.667-3.667-4.307 3.267 9.291z" style="stroke:#1a83af;stroke-width:2"/><path fill="none" d="M553.98 146.87c-19.36 24.79-55.51 68.47-92.48 99.5-26.13 21.93-58.87 42.25-84.43 56.77" style="stroke:#1a83af;stroke-width:2"/><path fill="#1A83AF" d="m373.06 305.97 9.804-.937-5.449-1.52 1.52-5.448-5.875 7.905z" style="stroke:#1a83af;stroke-width:2"/><path fill="none" d="M566.74 146.99c-3.28 36-10.33 113.35-13.96 153.28" style="stroke:#1a83af;stroke-width:2"/><path fill="#1A83AF" d="m552.27 304.88 4.807-8.596-4.35 3.617-3.616-4.35 3.159 9.329z" style="stroke:#1a83af;stroke-width:2"/><path fill="none" d="M515.75 147.01c-44.98 16.47-109.55 40.12-156.03 57.14" style="stroke:#1a83af;stroke-width:2"/><path fill="#1A83AF" d="m355.14 206.2 9.827.648-5.134-2.374 2.373-5.135-7.066 6.861z" style="stroke:#1a83af;stroke-width:2"/><path fill="none" d="M308.22 246.8c5.35 15.4 12.89 37.07 18.68 53.74" style="stroke:#1a83af;stroke-width:2"/><path fill="#1A83AF" d="m328.8 304.99.825-9.814-2.466 5.09-5.091-2.465 6.732 7.189z" style="stroke:#1a83af;stroke-width:2"/><path fill="none" d="M350.69 246.8c41.87 16.44 101.92 40.02 145.25 57.04" style="stroke:#1a83af;stroke-width:2"/><path fill="#1A83AF" d="m500.41 305.99-6.916-7.013 2.262 5.186-5.185 2.261 9.839-.434z" style="stroke:#1a83af;stroke-width:2"/></svg>
